;FLAVOR:Marlin
;TIME:2953
;Filament used: 1.10534m, 0m
;Layer height: 0.1
;MINX:0
;MINY:0
;MINZ:0.2
;MAXX:190.665
;MAXY:183.174
;MAXZ:2
;TARGET_MACHINE.NAME:Unknown
;Generated with Cura_SteamEngine 5.12.0
G28 ;Home
G1 Z15.0 F6000 ;Move the platform down 15mm
;Prime the extruder
G92 E0
G1 F200 E3
G92 E0
M140 S60
M105
M190 S60
M104 S200
M105
M109 S200
M82 ;absolute extrusion mode
G92 E0
G92 E0
G1 F1500 E-6.5
;LAYER_COUNT:19
;LAYER:0
M107 P1
;MESH:lotus.stl
G0 F3600 X189.8 Y182.308 Z0.2
;TYPE:WALL-OUTER
G1 F1500 E0
G1 F1800 X189.8 Y117.688 E2.14927
G1 X110.2 Y117.688 E4.79678
G1 X110.2 Y182.308 E6.94605
G1 X189.8 Y182.308 E9.59355
G0 F3600 X189.8 Y182.108
G0 X189.4 Y181.908
;TYPE:WALL-INNER
G1 F1800 X189.4 Y118.088 E11.71622
G1 X110.6 Y118.088 E14.33711
G1 X110.6 Y181.908 E16.45978
G1 X189.4 Y181.908 E19.08067
G0 F3600 X189.02 Y181.528
;TYPE:SKIN
G1 F1800 X189.02 Y118.468 E21.17806
G1 X110.98 Y118.468 E23.77368
G1 X110.981 Y181.527 E25.87103
G1 X189.02 Y181.528 E28.46662
G1 F1500 E21.96662
G0 F3600 X189.02 Y183.174
G0 X168.512 Y183.174
G0 X168.512 Y164.758
G1 F1500 E28.46662
G1 F2117.6 X168.449 Y164.722 E28.46867
G1 X168.428 Y164.758 E28.46985
G1 X168.491 Y164.794 E28.4719
G1 X168.512 Y164.758 E28.47308
G1 F1500 E21.97308
G0 F3600 X162.701 Y172.001
G1 F1500 E28.47308
G1 F1575.5 X162.71 Y172.062 E28.47542
G1 F1500 E21.97542
G0 F3600 X162.71 Y183.174
G0 X190.653 Y183.162
G0 X190.665 Y148.769
G0 X183.204 Y148.769
G1 F1500 E28.47542
G1 F1800 X183.117 Y148.95 E28.4821
G1 X182.656 Y149.056 E28.49783
G1 X182.586 Y149.026 E28.50037
G1 X182.68 Y149.305 E28.51016
G1 X182.87 Y149.445 E28.51801
G1 X182.933 Y149.687 E28.52632
G1 X183.082 Y149.769 E28.53198
G1 X183.37 Y149.845 E28.54189
G1 X183.45 Y149.978 E28.54705
G1 X183.418 Y150.176 E28.55372
G1 X183.751 Y150.139 E28.56487
G1 X183.967 Y150.327 E28.57439
G1 X183.997 Y150.413 E28.57742
G1 X184.374 Y150.677 E28.59273
G1 X184.428 Y150.85 E28.59875
G1 X184.569 Y150.907 E28.60381
G1 X184.664 Y151.118 E28.61151
G1 X184.853 Y151.216 E28.61859
G1 X184.905 Y151.373 E28.62409
G1 X185.06 Y151.428 E28.62956
G1 X185.121 Y151.537 E28.63372
G1 X185.115 Y151.647 E28.63738
G1 X185.39 Y151.928 E28.65046
G1 X185.427 Y152.107 E28.65654
G1 X185.575 Y152.163 E28.6618
G1 X185.624 Y152.239 E28.66481
G1 X185.68 Y152.589 E28.6766
G1 X185.807 Y152.625 E28.68099
G1 X185.886 Y152.727 E28.68528
G1 X185.928 Y153.071 E28.6968
G1 X186.083 Y153.128 E28.7023
G1 X186.148 Y153.235 E28.70646
G1 X186.178 Y153.581 E28.71801
G1 X186.335 Y153.635 E28.72353
G1 X186.394 Y153.734 E28.72737
G1 X186.431 Y154.056 E28.73815
G1 X186.587 Y154.109 E28.74363
G1 X186.652 Y154.207 E28.74754
G1 X186.677 Y154.448 E28.7556
G1 X186.762 Y154.474 E28.75855
G1 X186.91 Y154.719 E28.76807
G1 X186.932 Y155.08 E28.7801
G1 X187.082 Y155.15 E28.78561
G1 X187.172 Y155.504 E28.79776
G1 X187.347 Y155.623 E28.8048
G1 X187.4 Y155.75 E28.80937
G1 X187.442 Y156.723 E28.84177
G1 X187.33 Y157.078 E28.85415
G1 X187.142 Y157.266 E28.86299
G1 X187.02 Y157.324 E28.86748
G1 X186.776 Y157.348 E28.87564
G1 X186.038 Y157.311 E28.90021
G1 X185.841 Y157.197 E28.90778
G1 X185.792 Y157.119 E28.91085
G1 X185.234 Y157.064 E28.9295
G1 X185.119 Y156.872 E28.93694
G1 X184.297 Y156.82 E28.96434
G1 X184.213 Y156.769 E28.9676
G1 X184.102 Y156.784 E28.97133
G1 X183.867 Y156.731 E28.97934
G1 X183.658 Y156.631 E28.98705
G1 X183.013 Y156.616 E29.00851
G1 X181.856 Y156.552 E29.04705
G1 X181.608 Y156.466 E29.05578
G1 X181.487 Y156.379 E29.06073
G1 X180.779 Y156.326 E29.08435
G1 X180.513 Y156.353 E29.09324
G1 X180.297 Y156.273 E29.1009
G1 X180.159 Y156.132 E29.10746
G1 X179.52 Y156.098 E29.12875
G1 X179.471 Y156.063 E29.13075
G1 X179.333 Y156.066 E29.13534
G1 X179.18 Y155.947 E29.14179
G1 X179.157 Y155.873 E29.14437
G1 X178.898 Y155.846 E29.15303
G1 X178.959 Y156.531 E29.1759
G1 X179.108 Y156.725 E29.18404
G1 X179.123 Y156.971 E29.19223
G1 X179.21 Y157.601 E29.21339
G1 X179.31 Y157.703 E29.21814
G1 X179.396 Y157.951 E29.22687
G1 X179.464 Y158.695 E29.25172
G1 X179.42 Y158.807 E29.25572
G1 X179.141 Y159.056 E29.26816
G1 X178.863 Y159.211 E29.27874
G1 X178.644 Y159.235 E29.28607
G1 X178.535 Y159.183 E29.29009
G1 X178.49 Y159.099 E29.29326
G1 X178.092 Y159.005 E29.30686
G1 X177.973 Y158.911 E29.3119
G1 X177.86 Y158.594 E29.32309
G1 X177.719 Y158.548 E29.32803
G1 X177.642 Y158.293 E29.33689
G1 X177.056 Y158.48 E29.35735
G1 X176.424 Y158.476 E29.37837
G1 X176.222 Y158.361 E29.3861
G1 X175.84 Y158.32 E29.39888
G1 X175.959 Y158.762 E29.4141
G1 X176.108 Y158.943 E29.4219
G1 X176.207 Y159.54 E29.44203
G1 X176.354 Y159.61 E29.44744
G1 X176.399 Y159.68 E29.45021
G1 X176.458 Y160.095 E29.46415
G1 X176.58 Y160.176 E29.46902
G1 X176.669 Y160.421 E29.47769
G1 X176.714 Y160.806 E29.49058
G1 X176.841 Y160.919 E29.49624
G1 X176.958 Y161.586 E29.51876
G1 X177.08 Y161.675 E29.52378
G1 X177.205 Y162.375 E29.54743
G1 X177.313 Y162.462 E29.55205
G1 X177.408 Y162.703 E29.56066
G1 X177.445 Y163.281 E29.57993
G1 X177.586 Y163.423 E29.58658
G1 X177.692 Y164.534 E29.6237
G1 X177.883 Y165.932 E29.67063
G1 X177.892 Y166.594 E29.69265
G1 X177.912 Y166.665 E29.6951
G1 X177.968 Y167.552 E29.72467
G1 X178.071 Y167.715 E29.73108
G1 X177.994 Y168.197 E29.74731
G1 X177.909 Y168.439 E29.75584
G1 X177.604 Y168.726 E29.76977
G1 X177.283 Y168.768 E29.78054
G1 X176.561 Y168.737 E29.80458
G1 X176.152 Y168.606 E29.81886
G1 X176.061 Y168.531 E29.82278
G1 X175.499 Y168.43 E29.84177
G1 X175.338 Y168.417 E29.84715
G1 X175.198 Y168.288 E29.85348
G1 X174.58 Y168.229 E29.87413
G1 X174.49 Y168.185 E29.87746
G1 X174.38 Y168.039 E29.88354
G1 X174.044 Y168.01 E29.89476
G1 X173.796 Y167.876 E29.90413
G1 X173.752 Y167.789 E29.90737
G1 X173.514 Y167.763 E29.91534
G1 X173.399 Y167.642 E29.92089
G1 X173.386 Y167.532 E29.92457
G1 X173.048 Y167.444 E29.93619
G1 X172.962 Y167.337 E29.94076
G1 X172.951 Y167.26 E29.94334
G1 X172.774 Y167.236 E29.94928
G1 X172.691 Y167.159 E29.95305
G1 X172.651 Y167.014 E29.95805
G1 X172.501 Y166.967 E29.96328
G1 X172.424 Y166.748 E29.971
G1 X171.832 Y166.759 E29.99069
G1 X171.616 Y166.721 E29.99799
G1 X171.503 Y166.654 E30.00236
G1 X171.452 Y166.544 E30.00639
G1 X171.036 Y166.451 E30.02057
G1 X170.949 Y166.3 E30.02637
G1 X170.588 Y166.23 E30.0386
G1 X170.467 Y166.118 E30.04408
G1 X170.456 Y166.038 E30.04677
G1 X170.222 Y165.962 E30.05495
G1 X170.161 Y165.805 E30.06055
G1 X169.805 Y165.777 E30.07243
G1 X169.703 Y165.709 E30.07651
G1 X169.65 Y165.55 E30.08208
G1 X169.336 Y165.512 E30.0926
G1 X169.214 Y165.429 E30.09751
G1 X169.177 Y165.302 E30.10191
G1 X169.028 Y165.278 E30.10693
G1 X168.788 Y165.103 E30.11681
G1 X168.767 Y165.026 E30.11946
G1 X168.563 Y165.019 E30.12625
G1 X168.502 Y164.963 E30.129
G1 X168.398 Y166.441 E30.17828
G1 X168.245 Y166.925 E30.19517
G1 X168.092 Y168.148 E30.23616
G1 X167.996 Y168.396 E30.24501
G1 X167.979 Y169.59 E30.28472
G1 X167.923 Y169.702 E30.28889
G1 X168.095 Y169.745 E30.29478
G1 X168.181 Y169.842 E30.2991
G1 X168.228 Y170.107 E30.30805
G1 X168.212 Y171.549 E30.35601
G1 X168.121 Y172.12 E30.37524
G1 X167.996 Y172.406 E30.38562
G1 X167.971 Y173.559 E30.42398
G1 X167.678 Y174.012 E30.44193
G1 X167.351 Y174.173 E30.45405
G1 X166.859 Y174.181 E30.47041
G1 X166.636 Y174.1 E30.47831
G1 X166.569 Y173.994 E30.48248
G1 X166.094 Y173.957 E30.49832
G1 X165.883 Y173.846 E30.50625
G1 X165.797 Y173.74 E30.51079
G1 X165.351 Y173.687 E30.52573
G1 X165.108 Y173.489 E30.53616
G1 X164.818 Y173.437 E30.54596
G1 X164.597 Y173.288 E30.55482
G1 X164.555 Y173.207 E30.55786
G1 X164.352 Y173.194 E30.56462
G1 X164.26 Y173.14 E30.56817
G1 X164.197 Y172.989 E30.57361
G1 X164.034 Y172.953 E30.57916
G1 X163.811 Y172.788 E30.58839
G1 X163.783 Y172.703 E30.59137
G1 X163.603 Y172.692 E30.59736
G1 X163.497 Y172.618 E30.60166
G1 X163.457 Y172.482 E30.60638
G1 X163.312 Y172.448 E30.61133
G1 X163.075 Y172.28 E30.62099
G1 X163.046 Y172.199 E30.62386
G1 F1756.1 X162.837 Y172.177 E30.63102
G1 F1636.4 X162.71 Y172.062 E30.63729
G1 X162.638 Y172.218 E30.64358
G1 F1756.1 X162.503 Y172.359 E30.65023
G1 F1800 X162.395 Y172.903 E30.66868
G1 X162.255 Y173.114 E30.6771
G1 X162.182 Y173.404 E30.68705
G1 X162.002 Y173.715 E30.699
G1 X161.914 Y174.025 E30.70971
G1 X161.987 Y174.317 E30.71973
G1 X161.941 Y175.298 E30.75239
G1 X161.761 Y175.615 E30.76451
G1 X161.654 Y176.325 E30.7884
G1 X161.509 Y176.555 E30.79744
G1 X161.387 Y177.088 E30.81563
G1 X161.257 Y177.284 E30.82345
G1 X161.194 Y177.628 E30.83508
G1 X160.709 Y178.182 E30.85957
G1 X160.371 Y178.442 E30.87375
G1 X160.108 Y178.468 E30.88254
G1 X159.576 Y178.422 E30.9003
G1 X159.317 Y178.367 E30.90911
G1 X159.215 Y178.192 E30.91585
G1 X158.861 Y178.152 E30.9277
G1 X158.783 Y178.107 E30.93069
G1 X158.717 Y177.96 E30.93605
G1 X158.351 Y177.92 E30.9483
G1 X158.262 Y177.866 E30.95176
G1 X158.188 Y177.714 E30.95738
G1 X157.846 Y177.669 E30.96885
G1 X157.76 Y177.611 E30.9723
G1 X157.704 Y177.458 E30.97772
G1 X157.356 Y177.402 E30.98945
G1 X157.243 Y177.285 E30.99486
G1 X157.227 Y177.202 E30.99767
G1 X157.062 Y177.165 E31.00329
G1 X156.876 Y177.036 E31.01082
G1 X156.821 Y176.941 E31.01447
G1 X156.551 Y176.83 E31.02418
G1 X156.504 Y176.679 E31.02944
G1 X156.334 Y176.659 E31.03513
G1 X156.264 Y176.601 E31.03816
G1 X156.217 Y176.456 E31.04323
G1 X156.056 Y176.409 E31.04881
G1 X155.792 Y176.154 E31.06101
G1 X155.684 Y175.96 E31.0684
G1 X155.509 Y175.87 E31.07494
G1 X155.456 Y175.717 E31.08033
G1 X155.296 Y175.671 E31.08587
G1 X155.16 Y175.556 E31.09179
G1 X154.909 Y175.209 E31.10603
G1 X154.746 Y175.103 E31.1125
G1 X154.716 Y174.935 E31.11818
G1 X154.564 Y174.876 E31.1236
G1 X154.496 Y174.646 E31.13158
G1 X154.347 Y174.591 E31.13686
G1 X154.204 Y174.207 E31.15049
G1 X154.071 Y174.162 E31.15516
G1 X154.007 Y174.091 E31.15834
G1 X153.952 Y173.844 E31.16675
G1 X153.736 Y173.609 E31.17737
G1 X153.702 Y173.445 E31.18294
G1 X153.569 Y173.399 E31.18762
G1 X153.505 Y173.306 E31.19138
G1 X153.488 Y173.071 E31.19921
G1 X153.242 Y172.886 E31.20945
G1 X153.203 Y172.722 E31.21506
G1 X153.055 Y172.677 E31.2202
G1 X152.995 Y172.599 E31.22348
G1 X152.986 Y172.431 E31.22907
G1 X152.837 Y172.377 E31.23434
G1 X152.699 Y171.996 E31.24782
G1 X152.534 Y171.934 E31.25368
G1 X152.457 Y171.725 E31.26109
G1 X152.327 Y171.695 E31.26553
G1 X152.241 Y171.585 E31.27017
G1 X152.235 Y171.423 E31.27556
G1 X152.165 Y171.417 E31.2779
G1 X152.054 Y171.321 E31.28278
G1 X151.957 Y170.986 E31.29438
G1 X151.836 Y170.963 E31.29848
G1 X151.756 Y170.873 E31.30248
G1 X151.663 Y171.032 E31.30861
G1 X151.635 Y171.174 E31.31342
G1 X151.52 Y171.295 E31.31898
G1 X151.422 Y171.505 E31.32668
G1 X151.395 Y171.685 E31.33274
G1 X151.264 Y171.824 E31.33909
G1 X150.97 Y172.399 E31.36057
G1 X150.778 Y172.669 E31.37159
G1 X150.706 Y172.948 E31.38117
G1 X150.274 Y173.426 E31.4026
G1 X150.209 Y173.659 E31.41065
G1 X149.776 Y174.18 E31.43318
G1 X149.646 Y174.428 E31.44249
G1 X149.498 Y174.566 E31.44922
G1 X148.936 Y175.188 E31.4771
G1 X148.436 Y175.7 E31.50091
G1 X148.037 Y176.159 E31.52114
G1 X147.94 Y176.389 E31.52944
G1 X147.723 Y176.663 E31.54106
G1 X147.339 Y177.176 E31.56238
G1 X147.023 Y177.481 E31.57698
G1 X146.912 Y177.648 E31.58365
G1 X146.531 Y178.063 E31.60239
G1 X146.405 Y178.26 E31.61017
G1 X146.372 Y178.398 E31.61489
G1 X145.705 Y178.906 E31.64277
G1 X145.271 Y178.899 E31.65721
G1 X144.996 Y179.127 E31.66909
G1 X144.667 Y179.191 E31.68024
G1 X143.939 Y179.176 E31.70446
G1 X143.82 Y179.134 E31.70865
G1 X143.571 Y178.912 E31.71975
G1 X143.407 Y178.914 E31.72521
G1 X143.306 Y178.849 E31.7292
G1 X143.262 Y178.684 E31.73488
G1 X143.072 Y178.659 E31.74125
G1 X143 Y178.573 E31.74498
G1 X142.995 Y178.394 E31.75094
G1 X142.843 Y178.322 E31.75653
G1 X142.733 Y177.935 E31.76992
G1 X142.565 Y177.86 E31.77603
G1 X142.513 Y177.613 E31.78443
G1 X142.358 Y177.539 E31.79014
G1 X142.235 Y177.112 E31.80492
G1 X142.144 Y177.07 E31.80826
G1 X141.993 Y176.823 E31.81788
G1 X141.976 Y176.602 E31.82526
G1 X141.889 Y176.54 E31.82881
G1 X141.787 Y176.339 E31.83631
G1 X141.733 Y176.027 E31.84684
G1 X141.524 Y175.802 E31.85705
G1 X141.484 Y175.487 E31.86761
G1 X141.332 Y175.391 E31.87359
G1 X141.276 Y175.292 E31.87738
G1 X141.252 Y175.018 E31.88652
G1 X141.081 Y174.823 E31.89515
G1 X140.982 Y174.298 E31.91292
G1 X140.768 Y174.075 E31.9232
G1 X140.729 Y173.511 E31.942
G1 X140.55 Y173.37 E31.94958
G1 X140.483 Y172.875 E31.9662
G1 X140.377 Y172.778 E31.97097
G1 X140.29 Y172.58 E31.97817
G1 X140.231 Y171.977 E31.99832
G1 X140.047 Y171.809 E32.00661
G1 X139.977 Y171.011 E32.03325
G1 X139.851 Y170.841 E32.04029
G1 X139.824 Y170.668 E32.04611
G1 X139.767 Y170.587 E32.04941
G1 X139.73 Y169.905 E32.07212
G1 X139.644 Y169.837 E32.07577
G1 X139.549 Y169.552 E32.08576
G1 X139.528 Y169.209 E32.09719
G1 X139.274 Y169.482 E32.10959
G1 X138.725 Y169.971 E32.13405
G1 X138.253 Y170.417 E32.15564
G1 X137.956 Y170.555 E32.16654
G1 X137.501 Y170.928 E32.18611
G1 X137.358 Y170.99 E32.19129
G1 X137.281 Y171.086 E32.19538
G1 X137.087 Y171.165 E32.20235
G1 X136.741 Y171.402 E32.2163
G1 X136.488 Y171.519 E32.22557
G1 X136.023 Y171.905 E32.24567
G1 X135.716 Y172.036 E32.25677
G1 X135.493 Y172.196 E32.2659
G1 X135.347 Y172.242 E32.27099
G1 X135.257 Y172.328 E32.27513
G1 X134.957 Y172.468 E32.28614
G1 X134.773 Y172.481 E32.29228
G1 X134.515 Y172.691 E32.30334
G1 X134.262 Y172.747 E32.31196
G1 X133.532 Y173.432 E32.34526
G1 X133.375 Y173.488 E32.3508
G1 X133.267 Y173.577 E32.35545
G1 X133.149 Y173.599 E32.35945
G1 X132.753 Y173.922 E32.37644
G1 X132.449 Y174.047 E32.38738
G1 X132.193 Y174.209 E32.39745
G1 X131.98 Y174.412 E32.40724
G1 X131.812 Y174.433 E32.41287
G1 X131.528 Y174.644 E32.42464
G1 X131.27 Y174.729 E32.43367
G1 X130.998 Y174.928 E32.44488
G1 X130.761 Y174.982 E32.45297
G1 X130.491 Y175.183 E32.46416
G1 X129.918 Y175.234 E32.4833
G1 X129.801 Y175.134 E32.48841
G1 X129.769 Y174.976 E32.49378
G1 X129.614 Y174.937 E32.49909
G1 X129.552 Y174.869 E32.50215
G1 X129.527 Y174.708 E32.50757
G1 X129.377 Y174.66 E32.51281
G1 X129.306 Y174.536 E32.51756
G1 X129.297 Y174.326 E32.52455
G1 X129.217 Y174.272 E32.52776
G1 X129.079 Y174.03 E32.53703
G1 X129.025 Y173.614 E32.55098
G1 X128.916 Y173.525 E32.55566
G1 X128.896 Y173.376 E32.56066
G1 X128.82 Y173.261 E32.56525
G1 X128.772 Y172.686 E32.58444
G1 X128.612 Y172.592 E32.59061
G1 X128.561 Y172.304 E32.60034
G1 X128.515 Y171.731 E32.61946
G1 X128.312 Y171.303 E32.63521
G1 X128.268 Y168.602 E32.72506
G1 X128.272 Y168.094 E32.74196
G1 X128.284 Y167.856 E32.74988
G1 X128.321 Y166.107 E32.80807
G1 X128.411 Y165.802 E32.81865
G1 X128.514 Y165.67 E32.82421
G1 X128.554 Y164.633 E32.85873
G1 X128.634 Y164.469 E32.8648
G1 X128.634 Y164.371 E32.86806
G1 X128.762 Y164.176 E32.87582
G1 X128.795 Y163.264 E32.90617
G1 X128.482 Y163.487 E32.91895
G1 X128.182 Y163.563 E32.92925
G1 X127.966 Y163.706 E32.93786
G1 X127.869 Y163.708 E32.94109
G1 X127.777 Y163.768 E32.94474
G1 X127.522 Y163.815 E32.95337
G1 X127.229 Y164.017 E32.9652
G1 X126.969 Y164.063 E32.97398
G1 X126.735 Y164.235 E32.98364
G1 X126.292 Y164.314 E32.99861
G1 X126.015 Y164.492 E33.00956
G1 X125.794 Y164.483 E33.01692
G1 X125.478 Y164.538 E33.02759
G1 X124.713 Y164.571 E33.05305
G1 X124.503 Y164.65 E33.06052
G1 X124.378 Y164.643 E33.06468
G1 X124.23 Y164.572 E33.07014
G1 X123.748 Y164.572 E33.08617
G1 X123.486 Y164.706 E33.09596
G1 X123.268 Y164.709 E33.10321
G1 X123.172 Y164.647 E33.10701
G1 X123.129 Y164.562 E33.11018
G1 X122.933 Y164.543 E33.11673
G1 X122.842 Y164.481 E33.12039
G1 X122.789 Y164.262 E33.12789
G1 X122.621 Y164.158 E33.13446
G1 X122.566 Y163.882 E33.14382
G1 X122.542 Y162.829 E33.17885
G1 X122.477 Y162.768 E33.18182
G1 X122.401 Y162.555 E33.18934
G1 X122.38 Y161.902 E33.21107
G1 X122.477 Y161.374 E33.22892
G1 X122.545 Y161.259 E33.23337
G1 X122.578 Y160.161 E33.2699
G1 X122.783 Y159.872 E33.28169
G1 X122.812 Y159.412 E33.29702
G1 X122.881 Y159.106 E33.30745
G1 X123.039 Y158.873 E33.31681
G1 X123.094 Y158.369 E33.33368
G1 X123.284 Y158.122 E33.34404
G1 X123.328 Y157.858 E33.35294
G1 X123.392 Y157.767 E33.35664
G1 X123.395 Y157.639 E33.3609
G1 X123.55 Y157.449 E33.36906
G1 X123.605 Y157.13 E33.37982
G1 X123.799 Y156.916 E33.38943
